X: 1
T:Francis John McGovern's
M:C |
L:1/8
S:Charlie Lennon/Stockton's Wing
R:Reel
K:G
BBBA GEDE | GGBG cGBG | BBBA GEDE | EAAG A2GA :||
B/c/d ef ggef | gedc BGGG | B/c/d ef ggfg | eaaa aged | B/c/d ef ggef | gedc BGGA | BBBA GEDE | EAAG A2GA ||

